X:7
T:T207A- The Wild Irishman
S:R. Bride's 24 Country Dances for 1770.
Q:1/8=240
L:1/8
M:2/4
K:E
e3/2f/2g3/2e/2|a3/2f/2g3/2d/2|e3/2f/2g3/2e/2|d2f2|\
e3/2f/2g3/2e/2|a3/2f/2g3/2e/2|g3/2b/2 (3 afd|e2E2||\
(3 age (3 Bdf|(3 Bdf (3 Bdf| (3Bdf (3Bgf|(3Bgf (3fga|\
(3 age (3 Bdf|(3 Bdf "tr"f2|(3 egb (3 afd|e2E2|]

